!! 00000] ST[00
!!!OTL: Alamuhan
!!!ARE: Asia, Ostasien, Xinjiang
!! Ethnic Group: Weiwuer: Uiguren
!!!YOR: Zhongguo Mingge Xuan, S. 270, + "100 Chinesische Volkslieder" (19)
!!!SCT: C1154
!!!YEM: Copyright 1995, estate of Helmut Schaffrath.
**kern
*ICvox
*Ivox
*M4/4
*k[b-]
*F:
{16c
16f
16f
16f
16e
16f
8g
4.a
8ff}
=1
{16ee
16dd
16cc
16b-
16a
16f
8g
4f
4r}
=2
{8r
16cc
16cc
8.cc
16dd
16ff
16ff
8ff
4r}
=3
{8r
16ff
16ff
8ff
8dd
16dd
16dd
8cc
4r}
=4
{8r
16ff
16ff
8ff
8ff
16dd
16ee
8dd
4cc}
=5
{8r
16cc
16cc
8a
8a
16g
16g
8a
4r}
=6
{16c
16f
16f
16f
8cc
8b-
4.a
8ff}
=7
{16ee
16dd
16cc
16b-
16a
16f
8g
4f
4r}
=8
{16cc
16cc
16cc
16cc
16cc
16cc
8b-
4.a
8ff}
=9
{16ee
16dd
16aa
16gg
16ff
16dd
8ee
4ff
4r}
==
!!!AGN: Qingge
!! Wegen besserer Textverteilung in ESTAFF wurde die erste (wiederholte)
!!    Phrase noch einmal getrennt. Dasselbe gilt fÅr die letzte und vor-
!!    letzte. In die ersten beiden Zeilen gehîren nun Wiederholungszeichen.
!!    Die Tonart wurde wegen der Textverteilung hochgesetzt. Hat jemand den
!!    original uigurischen Text?
!!!ONB: ESAC (Essen Associative Code) Database: CHINA_0
!!!AMT: simple quadruple
!!!AIN: vox
!!!EED: Helmut Schaffrath
!!!EEV: 1.0
*-
